X: 6
T: Sleepy Maggie
R: reel
M: 4/4
L: 1/8
K: Gdor
|: e2 Aa edB<d | e2 g2 B<GB<d | e2 Aa edB<d | e>fg>e d<GB<d :||: eA A2 eAB<d | eA A2 B<GB<d | eA A2 eAB<d | e>fg>e d<GB<d :|


Tune 787	Setting 13917

